X:1
T: Gilderoy
M: C|
R: reel
K: Am
E2| "Am"A2AB cBcd| efec "G"d2cd| "Am"edcB ABcA| "E7"B^GE2 E2EG|
    "Am"A^GAB cBcd| efec "G"d2cd| "Am"ea^ga "E7"edcB| "Am"c2A2 A2 :|
|:ef| "C"g2ga gfef| gfec "G"d2cd| "Am"edcB ABcA| "E7"B^GE2 E2EG|
"Am"A^GAB cBcd| efec "G"d2cd| "Am"ea^ga "E7"edcB| "Am"c2A2 A2 :|
